src/static/logos/keycdn.svg

<?xml version="1.0" encoding="UTF-8"?>
<svg width="256px" height="247px" viewBox="0 0 256 247" version="1.1" xmlns="http://www.w3.org/2000/svg" xmlns:xlink="http://www.w3.org/1999/xlink" preserveAspectRatio="xMidYMid">
    <defs>
        <linearGradient x1="48.8781453%" y1="0.0126014056%" x2="51.1219701%" y2="99.9874963%" id="linearGradient-1">
            <stop stop-color="#009FE6" offset="0%"></stop>
            <stop stop-color="#006DB7" offset="100%"></stop>
        </linearGradient>
    </defs>
	<g>
		<path d="M24.5833474,198.636278 C26.9894381,198.736048 29.4287855,199.073644 31.7018489,199.906224 L31.7014622,199.884955 L32.044858,200.008314 L62.0049789,170.781003 L63.1043867,172.247009 C64.662429,174.354175 66.3113474,176.278429 68.0519154,178.202683 L68.6934622,178.935492 C69.15171,179.393353 69.5179215,179.851601 69.9761692,180.309849 L70.7089789,181.043045 L71.4421752,181.775855 L72.0833353,182.417402 L72.8165317,183.150211 L73.4576918,183.791758 L74.2825378,184.524568 L75.0153474,185.166115 C88.9422115,196.985039 106.350211,203.673136 124.674707,204.131384 C139.792242,204.497982 154.542792,200.649861 167.461897,193.045269 L169.752363,195.427384 C172.409039,198.267746 175.157752,201.108109 177.815202,203.948471 C161.872822,214.20974 143.365414,219.340568 124.307722,218.882707 C102.868302,218.33281 82.4370272,210.636568 66.0367855,196.89339 L66.1276616,196.710091 L46.9044592,215.659118 C47.6163867,217.900085 47.8998429,220.249329 47.9296193,222.59316 C47.9296193,235.828592 37.200435,246.558163 23.965003,246.558163 C10.729571,246.558163 0,235.828592 0,222.59316 C0,209.357728 10.729571,198.628544 23.965003,198.628544 L24.5833474,198.636278 Z M207.775323,75.0362296 C217.212906,90.5203625 221.8851,108.38661 221.426852,126.528193 C220.877728,148.700036 212.53994,169.864894 197.880266,186.448435 L197.972302,186.540471 L209.791227,199.092205 C214.555069,198.451045 219.319686,200.099964 222.618296,203.581486 C228.207372,209.53716 228.023686,218.882707 222.068399,224.563432 C216.113112,230.152121 206.767565,229.968822 201.087227,224.013535 C197.788616,220.531625 196.41426,215.675746 197.330369,211.003166 C191.833329,205.139142 182.121184,194.786224 176.532109,188.922199 L175.341438,187.639492 L176.715795,186.540471 C180.28858,183.700109 183.58719,180.584798 186.610465,177.102888 C199.162973,162.993112 206.218054,145.035215 206.676302,126.161208 C207.042514,111.86852 203.652254,97.850006 196.780858,85.4811843 L207.775323,75.0362296 Z M40.8281329,19.0321692 C45.040145,18.9699094 48.9876495,20.6319758 51.9266224,23.6363021 C55.2248459,27.1182115 56.5992024,31.9740906 55.6830937,36.6470574 L78.4056073,60.4685921 L77.0312508,61.5676133 C73.4576918,64.4079758 70.1594683,67.523287 67.1358066,71.0051964 C54.5840725,85.1145861 47.5289909,103.07287 46.9790937,121.946876 C46.6124955,136.239565 50.0027553,150.258079 56.8745378,162.71855 L45.9709486,173.346417 C36.4424894,157.770634 31.6786465,139.904387 32.2277704,121.580278 C32.700713,99.5225136 41.2983686,78.2161208 55.7329789,61.6159517 L43.2222356,48.5576314 C38.4583927,49.1987915 33.6937764,47.5498731 30.3951662,44.0683505 C24.806864,38.1130634 24.9897764,28.7671299 30.9450634,23.0867915 C33.2629849,20.9123384 36.2506828,19.5097523 39.4089184,19.1330997 C39.8799275,19.0770272 40.3548036,19.0658127 40.8281329,19.0321692 Z M232.025329,0 C245.260761,0 255.989946,10.7291843 255.989946,23.9646163 C255.989946,37.2000483 245.260761,47.9296193 232.025329,47.9296193 C229.478477,47.9578489 226.97223,47.4891601 224.549511,46.735855 L224.54255,46.7621511 L224.175565,46.6333776 L191.649644,77.5103807 L190.550622,76.0443746 C188.810054,73.7539094 186.885801,71.4630574 184.869897,69.3555045 L184.503299,68.8976435 L183.495541,67.8898852 L183.312628,67.7065861 L182.671082,67.0650393 L182.487396,66.8821269 L181.662937,66.0576677 L181.022163,65.5077704 L180.380616,64.9578731 L179.556157,64.2250634 L178.914224,63.6751662 L178.089764,62.9419698 C164.254937,51.3063444 146.938586,44.7095106 128.797776,44.2512628 C113.679855,43.8850514 98.9289184,47.6415227 86.1018489,55.3377644 L75.6568943,44.4345619 C91.5988882,34.1729063 110.106296,29.0420785 129.163988,29.5003263 C150.603408,30.0498369 171.034683,37.7460785 187.435698,51.5809063 L187.61861,51.5809063 L209.158187,31.1322296 C208.399082,28.8193353 208.091263,26.3912024 208.060326,23.9646163 C208.060326,10.7291843 218.789897,0 232.025329,0 Z" fill="#5B5B5B"></path>
		<path d="M127.573076,53.5 C130.280798,53.5119879 132.981559,53.7211964 135.669172,54.0352024 C174.333293,58.8910816 201.728,94.1653293 196.964157,132.829837 C192.107891,171.493958 156.833644,198.889051 118.169523,194.124822 C79.5046284,189.268556 52.1099215,153.994308 56.8745378,115.330187 C61.4867915,79.4631178 91.622864,53.6252931 127.573076,53.5 Z M126.510018,83.7807009 C110.858054,85.0332447 99.5317946,96.8734381 99.1342598,112.60429 C99.417716,123.824979 105.164181,133.296592 115.184918,138.457583 L109.739311,164.06377 L146.250634,164.06377 L140.812375,138.453329 C150.776266,133.041752 156.697523,124.09142 156.856073,112.60429 C156.64377,96.3703323 144.081208,84.150006 127.994973,83.7431903 L126.510018,83.7807009 Z M127.056435,83.6287251 L126.965172,83.6287251 L127.010804,83.6294985 L127.056435,83.6287251 Z" fill="url(#linearGradient-1)"></path>
	</g>
</svg>

<svg width="256" height="247" xmlns="http://www.w3.org/2000/svg" preserveAspectRatio="xMidYMid"><defs><linearGradient x1="48.878%" y1=".013%" x2="51.122%" y2="99.987%" id="a"><stop stop-color="#009FE6" offset="0%"/><stop stop-color="#006DB7" offset="100%"/></linearGradient></defs><path d="M24.583 198.636c2.406.1 4.846.438 7.119 1.27v-.021l.343.123 29.96-29.227 1.1 1.466c1.557 2.107 3.206 4.031 4.947 5.956l.641.732c.459.458.825.917 1.283 1.375l.733.733.733.733.641.641.734.733.64.642.826.733.732.641c13.927 11.819 31.335 18.507 49.66 18.965 15.117.367 29.868-3.481 42.787-11.086l2.29 2.382c2.657 2.84 5.406 5.681 8.063 8.521-15.942 10.262-34.45 15.393-53.507 14.935-21.44-.55-41.871-8.246-58.271-21.99l.09-.183-19.223 18.95c.712 2.24.996 4.59 1.026 6.933 0 13.236-10.73 23.965-23.965 23.965S0 235.828 0 222.593s10.73-23.964 23.965-23.964l.618.007zm183.192-123.6c9.438 15.484 14.11 33.35 13.652 51.492a93.881 93.881 0 01-23.547 59.92l.092.092 11.82 12.552c4.763-.641 9.528 1.008 12.826 4.49 5.59 5.955 5.406 15.3-.55 20.981-5.955 5.59-15.3 5.406-20.98-.55a14.779 14.779 0 01-3.758-13.01c-5.497-5.864-15.209-16.217-20.798-22.08l-1.19-1.284 1.374-1.099c3.573-2.84 6.871-5.955 9.894-9.437 12.553-14.11 19.608-32.068 20.066-50.942.367-14.292-3.024-28.311-9.895-40.68l10.994-10.445zM40.828 19.032c4.212-.062 8.16 1.6 11.099 4.604a14.78 14.78 0 013.756 13.011L78.406 60.47l-1.375 1.099c-3.573 2.84-6.872 5.955-9.895 9.437-12.552 14.11-19.607 32.068-20.157 50.942-.367 14.293 3.024 28.311 9.896 40.772L45.97 173.346c-9.529-15.575-14.292-33.442-13.743-51.766.473-22.057 9.07-43.364 23.505-59.964l-12.51-13.058c-4.765.64-9.53-1.008-12.828-4.49-5.588-5.955-5.405-15.3.55-20.981a15.03 15.03 0 018.464-3.954c.47-.056.946-.067 1.42-.1zM232.025 0c13.236 0 23.965 10.73 23.965 23.965S245.26 47.93 232.025 47.93c-2.547.028-5.053-.44-7.475-1.194l-.007.026-.367-.129L191.65 77.51l-1.1-1.466a78.26 78.26 0 00-5.68-6.688l-.367-.458-1.007-1.008-.183-.183-.642-.642-.184-.183-.824-.824-.64-.55-.642-.55-.825-.733-.642-.55-.824-.733a79.584 79.584 0 00-49.292-18.69c-15.118-.367-29.87 3.39-42.696 11.086L75.657 44.435c15.942-10.262 34.45-15.393 53.507-14.935 21.44.55 41.87 8.246 58.272 22.08h.183l21.54-20.448c-.76-2.313-1.068-4.74-1.099-7.167C208.06 10.729 218.79 0 232.025 0z" fill="#5B5B5B"/><path d="M127.573 53.5c2.708.012 5.409.221 8.096.535 38.664 4.856 66.059 40.13 61.295 78.795-4.856 38.664-40.13 66.06-78.794 61.295-38.665-4.856-66.06-40.13-61.295-78.795 4.612-35.867 34.748-61.705 70.698-61.83zm-1.063 30.28c-15.652 1.253-26.978 13.093-27.376 28.824.284 11.221 6.03 20.693 16.05 25.854l-5.445 25.606h36.512l-5.439-25.61c9.964-5.412 15.886-14.363 16.044-25.85-.212-16.234-12.775-28.454-28.861-28.86l-1.485.037zm.546-.151h-.09.09z" fill="url(#a)"/></svg>
